icon/ir/web-window-close.svg

<svg stroke-width="1.5" viewBox="0 0 24 24" fill="none" xmlns="http://www.w3.org/2000/svg" height="1em" width="1em">
  <path d="M3 17V7C3 5.89543 3.89543 5 5 5H19C20.1046 5 21 5.89543 21 7V17C21 18.1046 20.1046 19 19 19H5C3.89543 19 3 18.1046 3 17Z" stroke="currentColor" stroke-width="1.5"/>
  <path d="M10 14.2426L12.1213 12.1213M12.1213 12.1213L14.2426 10M12.1213 12.1213L10 10M12.1213 12.1213L14.2426 14.2426" stroke="currentColor" stroke-linecap="round" stroke-linejoin="round"/>
  <path d="M6 8H7" stroke="currentColor" stroke-linecap="round" stroke-linejoin="round"/>
</svg>

<svg width="24" height="24" stroke-width="1.5" fill="none" xmlns="http://www.w3.org/2000/svg"><path d="M3 17V7a2 2 0 0 1 2-2h14a2 2 0 0 1 2 2v10a2 2 0 0 1-2 2H5a2 2 0 0 1-2-2Z" stroke="currentColor"/><path d="m10 14.243 2.121-2.122m0 0L14.243 10m-2.122 2.121L10 10m2.121 2.121 2.122 2.122M6 8h1" stroke="currentColor" stroke-linecap="round" stroke-linejoin="round"/></svg>
